X: 1
T: Peat-Fire Flame
M: 4/4
L: 1/8
R: reel
K: Dmin
&quot;Part A&quot; || dfcd/c/ AG A2 | A8 ||
&quot;Part B&quot; || D>EFE DCA2 | AGGF/G/ AGGA | D>EFE DCAA/G/ | FDEC D2 D2 ||
&quot;Part C&quot; || F>GAf/e/ dc2A | AGGF/G/ AGGA | F>GAf/e/ dcA>G | FDEC D2 D2 ||
